dist/img/tfoot.svg

<svg width="30" height="30" viewBox="0 0 30 30" fill="none" xmlns="http://www.w3.org/2000/svg">
<path d="M1.22617 14.2019C1.22617 14.2019 10.0717 10.5717 13.1395 9.29346C14.3155 8.78219 18.3036 7.14598 18.3036 7.14598C18.3036 7.14598 20.1443 6.4302 19.9909 8.16859C19.9398 8.88444 19.5307 11.3898 19.1217 14.0997C18.5081 17.9345 17.8434 22.1271 17.8434 22.1271C17.8434 22.1271 17.7412 23.3031 16.872 23.5076C16.0028 23.7122 14.5711 22.7919 14.3155 22.5873C14.1109 22.4339 10.4807 20.133 9.15133 19.0082C8.7934 18.7014 8.38439 18.0879 9.20242 17.372C11.0431 15.6847 13.2417 13.5884 14.5711 12.259C15.1847 11.6454 15.7982 10.2138 13.2417 11.9522C9.61151 14.4576 6.0324 16.8096 6.0324 16.8096C6.0324 16.8096 5.21429 17.3209 3.68041 16.8607C2.14645 16.4006 0.356899 15.787 0.356899 15.787C0.356899 15.787 -0.870153 15.0201 1.22617 14.2019Z" fill="#34AADF"/>
</svg>

<svg width="30" height="30" fill="none" xmlns="http://www.w3.org/2000/svg"><path d="M1.226 14.202s8.846-3.63 11.914-4.909c1.175-.51 5.164-2.147 5.164-2.147s1.84-.716 1.687 1.023c-.051.715-.46 3.22-.87 5.93-.613 3.835-1.278 8.028-1.278 8.028s-.102 1.176-.971 1.38c-.87.205-2.3-.715-2.556-.92-.205-.153-3.835-2.454-5.165-3.579-.358-.307-.767-.92.051-1.636a196.11 196.11 0 0 0 5.37-5.113c.613-.614 1.226-2.045-1.33-.307-3.63 2.506-7.21 4.858-7.21 4.858s-.818.51-2.352.05C2.146 16.4.357 15.788.357 15.788s-1.227-.767.87-1.585Z" fill="#34AADF"/></svg>
